src/assets/images/prototype/resultats/3-favoris.svg

<svg width="26" height="24" viewBox="0 0 26 24" fill="none" xmlns="http://www.w3.org/2000/svg">
<path d="M6.08319 0.00299556C0.945542 -0.137133 -0.107445 4.67395 0.00826799 7.097C0.123981 9.52006 1.37438 10.7087 2.87216 12.6146C5.81913 16.3644 9.80654 20.7824 11.6924 22.8386C12.2743 23.4732 13.2635 23.4793 13.8581 22.8566C15.7815 20.8423 19.8582 16.567 22.9194 13.3152C24.5683 11.5636 25.6593 9.72441 25.9569 7.62248C26.2544 5.52056 25.089 0.00299556 20.0555 0.00299556C15.4907 0.00299556 13.6619 3.2684 12.951 5.35714C12.9143 5.46489 12.7162 5.44601 12.6972 5.33378C12.3539 3.29819 10.712 0.129245 6.08319 0.00299556Z" fill="#D9D9D9"/>
</svg>

<svg width="26" height="24" fill="none" xmlns="http://www.w3.org/2000/svg"><path d="M6.083.003C.946-.137-.107 4.674.008 7.097c.116 2.423 1.366 3.612 2.864 5.518 2.947 3.75 6.935 8.167 8.82 10.224a1.48 1.48 0 002.166.018c1.923-2.015 6-6.29 9.061-9.542 1.65-1.751 2.74-3.59 3.038-5.693.297-2.101-.868-7.619-5.902-7.619-4.564 0-6.393 3.265-7.104 5.354-.037.108-.235.089-.254-.023C12.354 3.298 10.712.129 6.083.003z" fill="#D9D9D9"/></svg>
